assets/icons/mood-sad.svg

<svg width="24" height="25" viewBox="0 0 24 25" fill="none" xmlns="http://www.w3.org/2000/svg">
<g clip-path="url(#clip0_1_136)">
<mask id="mask0_1_136" style="mask-type:luminance" maskUnits="userSpaceOnUse" x="0" y="0" width="24" height="25">
<path d="M24 0.666382H0V24.6664H24V0.666382Z" fill="white"/>
</mask>
<g mask="url(#mask0_1_136)">
<path d="M3.0534 8.147C1.09818 10.3311 0.0286683 13.1051 0.028656 16.0363C0.028656 16.4079 0.330229 16.7095 0.70183 16.7095H4.09116C4.46275 16.7095 4.76433 16.4079 4.76433 16.0363L4.76889 15.7733C4.79085 15.1687 4.89016 14.5691 5.06381 13.9888L3.48438 13.343C3.13402 13.1997 2.95502 12.8156 3.0599 12.4602L3.08464 12.3892L3.11654 12.3215C3.27917 12.0163 3.63548 11.8667 3.96746 11.9647L4.03842 11.9895L5.62566 12.6379C5.84794 12.2277 6.10914 11.8401 6.40626 11.4803L3.0534 8.147ZM4.01628 12.0435C3.69363 11.9116 3.32832 12.0481 3.16798 12.3489L3.13868 12.4113C3.00678 12.7337 3.14317 13.0993 3.44402 13.2597L3.50652 13.2889L5.08139 13.9322C5.16414 13.6623 5.3654 13.0901 5.59636 12.6893L4.01628 12.0435Z" fill="white"/>
<path d="M4.72006 16.0357L4.72495 15.773V15.772L4.7562 15.3169C4.80046 14.8765 4.88628 14.4409 5.01108 14.0152L3.46811 13.3833C3.09667 13.2314 2.90673 12.8245 3.01791 12.4478L3.01889 12.4458L3.0433 12.3745L3.04428 12.3706L3.08432 12.3892L3.04526 12.3706L3.07651 12.3033L3.07748 12.3013L3.1517 12.187C3.31679 11.9766 3.58109 11.8662 3.84702 11.896L3.97983 11.9224L3.98178 11.9234L4.05307 11.9478L4.05502 11.9488L5.6058 12.5826C5.81894 12.1942 6.06677 11.8261 6.34702 11.4829L3.056 8.21048C1.1272 10.3813 0.0726135 13.1315 0.0726013 16.0367L0.0852966 16.1626C0.143807 16.4494 0.397542 16.6654 0.701508 16.6656H4.09116C4.43841 16.6656 4.71989 16.3839 4.72006 16.0367V16.0357ZM3.99936 12.0845C3.69777 11.9613 3.35622 12.0886 3.20639 12.3697L3.17807 12.4273L3.17905 12.4283C3.0562 12.729 3.18315 13.07 3.46323 13.2202L3.5228 13.2486L5.05405 13.8726C5.14117 13.5973 5.3232 13.0906 5.53354 12.7115L3.99936 12.0845ZM4.7933 16.1812C4.72624 16.5076 4.43735 16.7534 4.09116 16.7534H0.701508C0.355423 16.7533 0.066377 16.5076 -0.000640869 16.1812L-0.0152893 16.0367C-0.0152769 13.0946 1.05849 10.3097 3.02084 8.11771L3.05112 8.08353L3.08432 8.11575L6.43686 11.4488L6.46518 11.4771L6.43979 11.5083C6.14459 11.8658 5.88528 12.2511 5.6644 12.6587L5.64584 12.6939L5.64389 12.6929L5.63412 12.7115C5.40578 13.1077 5.20587 13.6759 5.12338 13.9449L5.10971 13.9908L5.10873 13.9898L5.1058 14.0015C4.93324 14.5782 4.83466 15.1741 4.81284 15.7749L4.80795 16.0367L4.7933 16.1812Z" fill="white"/>
<path opacity="0.6" fill-rule="evenodd" clip-rule="evenodd" d="M7.44428 10.4914C8.68668 9.48152 10.2731 8.87472 11.9996 8.87472C13.7262 8.87472 15.3127 9.48152 16.5551 10.4916L19.9492 7.11501C17.7464 5.16623 14.9503 4.10031 11.9996 4.10031C9.04848 4.10031 6.25191 5.16656 4.04892 7.1159L7.44428 10.4914Z" fill="white"/>
<path opacity="0.2" fill-rule="evenodd" clip-rule="evenodd" d="M23.2979 16.7386C23.6857 16.7386 24 16.4243 24 16.0365C24 13.0873 22.9205 10.2967 20.9469 8.10373L17.5545 11.4786C18.5859 12.7178 19.2064 14.3065 19.2064 16.0365C19.2064 16.4243 19.5207 16.7386 19.9085 16.7386H23.2979Z" fill="white"/>
<path d="M12 21.333C14.9455 21.333 17.3334 18.9452 17.3334 15.9997C17.3334 13.0542 14.9455 10.6664 12 10.6664C9.0545 10.6664 6.66669 13.0542 6.66669 15.9997C6.66669 18.9452 9.0545 21.333 12 21.333Z" fill="white"/>
</g>
</g>
<defs>
<clipPath id="clip0_1_136">
<rect width="24" height="24" fill="white" transform="translate(0 0.666382)"/>
</clipPath>
</defs>
</svg>

<svg xmlns="http://www.w3.org/2000/svg" width="24" height="25" fill="none" viewBox="0 0 24 25"><g clip-path="url(#a)"><mask id="b" width="24" height="25" x="0" y="0" maskUnits="userSpaceOnUse" style="mask-type:luminance"><path fill="#fff" d="M24 .666H0v24h24z"/></mask><g fill="#fff" mask="url(#b)"><path d="M3.053 8.147a11.76 11.76 0 0 0-3.024 7.89c0 .37.301.672.673.672h3.39a.673.673 0 0 0 .672-.673l.005-.263a7 7 0 0 1 .295-1.784l-1.58-.646a.73.73 0 0 1-.424-.883l.025-.07.032-.069a.73.73 0 0 1 .85-.356l.071.024 1.588.649q.334-.617.78-1.158zm.963 3.896a.673.673 0 0 0-.848.306l-.03.062a.673.673 0 0 0 .306.849l.063.029 1.574.643c.083-.27.284-.842.515-1.243z"/><path d="m4.72 16.036.005-.263v-.001l.031-.455q.067-.661.255-1.302l-1.543-.632a.775.775 0 0 1-.45-.935v-.002l.025-.072.001-.003.04.018-.039-.018.032-.068v-.002l.075-.114c.165-.21.43-.32.695-.291l.133.026.002.001.071.025h.002l1.55.635a7.3 7.3 0 0 1 .742-1.1L3.056 8.21a11.72 11.72 0 0 0-2.983 7.827l.012.126a.63.63 0 0 0 .617.503h3.39a.63.63 0 0 0 .628-.63M4 12.084a.63.63 0 0 0-.794.286l-.028.057.001.001a.63.63 0 0 0 .284.792l.06.029 1.531.624c.087-.276.27-.782.48-1.162zm.793 4.097a.72.72 0 0 1-.702.572H.701A.72.72 0 0 1 0 16.181l-.014-.144c0-2.942 1.073-5.727 3.036-7.92l.03-.033.033.032 3.353 3.333.028.028-.025.031a7 7 0 0 0-.776 1.15l-.018.036-.002-.001-.01.018c-.228.397-.428.965-.51 1.234l-.014.046-.001-.001-.003.011a7 7 0 0 0-.293 1.774l-.005.262z"/><path fill-rule="evenodd" d="M7.444 10.491A7.2 7.2 0 0 1 12 8.875a7.2 7.2 0 0 1 4.555 1.617l3.394-3.377A11.94 11.94 0 0 0 12 4.1a11.94 11.94 0 0 0-7.95 3.016z" clip-rule="evenodd" opacity="0.6"/><path fill-rule="evenodd" d="M23.298 16.739a.7.7 0 0 0 .702-.703c0-2.949-1.08-5.74-3.053-7.932l-3.392 3.375a7.1 7.1 0 0 1 1.651 4.558c0 .387.315.702.703.702z" clip-rule="evenodd" opacity="0.2"/><path d="M12 21.333a5.333 5.333 0 1 0 0-10.667 5.333 5.333 0 0 0 0 10.667"/></g></g><defs><clipPath id="a"><path fill="#fff" d="M0 .666h24v24H0z"/></clipPath></defs></svg>
